X: 1
T: Washington's March No. 3
T: General Washington's March
O: 1807
B: Complete Fifer's Museum (printed in Northampton, Mass., 1807
B: sheet music by J. T. Siegling of Charleston 1825
B: Beck's Flute Book, p.12
R: march
Z: 2011 John Chambers <jc:trillian.mit.edu>
S: http://www.americanrevolution.org/washingtonsmusic.html
M: C
L: 1/8
K: G
BA |\
G2 BG A2 dc | Bg fe d2 Bd | c2 ec B2 dB | AG AB A2 BA |
G2 BG A2 dc | Bg fe d2 (3ABc | d2 (3Bcd e2 (3def | g2 GA G2 :|
|: Bc |\
d2 de dB gd | e2 ef ed ge | d2 de d2 BG | AG AB A2 BA |
G2 BG A2 dc | Bg fe d2 (3ABc | d2 (3Bcd e2 (3def | g2 GA G2 :|
